X: 30
T: the Honorable Cole Cosmo Gordon's Minuet
R: minuet
M: 3/4
L: 1/8
Z: 2010 John Chambers <jc:trillian.mit.edu>
B: Cantelo ed. "Twenty Four American Country Dances", London 1785 (Longman & Broderip)
S: http://www.archive.org/stream/bibliographyofea00sonnrich/bibliographyofea00sonnrich_djvu.txt
S: http://imslp.org/wiki/24_American_Country_Dances_(Cantelo,_Hezekiah)
K: D
%
V: 1
|:\
[d2F2] [d2F2] [d2F2] | [d4F4] {f}ed/e/ |\
[f2A2] [f2A2] [f2A2] | [f4A4] {a}gf/g/ |\
"p"a2 gfed | {f}e2 dcBA |\
"f"[d2F2] [d2F2] [d2F2] | [d4F4] {f}ed/e/ |
[f2A2] [f2A2] [f2A2] | [f4A4] {a}gf/g/ |\
"p"a2 gfed | (d2 c2) d2 |\
((3Ace) g2 ((3faf) | (f4 e2) ::\
[e2c2A2] [e2c2A2] [e2c2A2] | [e4c4A4] {f}ed/e/ |\
f2 gfed |
{d}c2 Bc A2 |\
[d2F2] [d2F2] [d2F2] | [d4F4] {f}ed/e/ |\
f2 gfeg | {g}f2 ef d2 |\
"p"a2 A3 =c | {c}B2 AB G2 |\
b2 B3 d | {d}c2 Bc A2 |
"f"((3Ace) .g.g.g.g | (f3/g//a//) (c2 d2) |\
((3Ace) .g.g.g.g | (f3/g//a//) c2 d2 |\
"f"[B2D2] ((3Bcd) ((3efg) | A2 ((3ABc) ((3def) |\
{a}gf/e/ d2 c2 | c2 d4 :|
%
V: 2 clef=bass middle=d
|: d2 f2 a2 | f2 d2 z2 | d2 f2 a2 | f2 d2 z2 | d2 f2 ^g2 | a2 A2 z2 |
   d2 f2 a2 | f2 d2 z2 | d2 f2 a2 | f2 d2 z2 | d2 f2 ^g2 | a2 g2 f2 |
   e2 c2 d2 | a2 e2 a2 :: A2 c2 e2 | c2 A2 z2 | d2 f2 g2 | a2 e2 A2 |
   d2 f2 a2 | f2 d2 z2 | d2 a2 A2 | d2 A2 D2 | f2 f2 f2 | g2 d2 G2 |
  ^g2 g2 g2 | a2 e2 A2 | A2 B2 c2 | d2 e2 f2 | A2 B2 c2 | d2 e2 f2 |
   g2 g2 g2 | f2 f2 f2 | g2 a2 A2 | d2 A2 D2 :|
